public/img/basket.svg

<svg width="49" height="56" xmlns="http://www.w3.org/2000/svg"><g fill="#000" fill-rule="evenodd"><path d="M48.2 55.5H.5v-42h47.7v42Zm-44.7-3h41.7v-36H3.5v36Z"/><path d="M38 25.7h-3V11.3c0-4.3-3.5-7.8-7.8-7.8h-5.6c-4.3 0-7.8 3.5-7.8 7.8v14.4h-3V11.3c0-6 4.8-10.8 10.8-10.8h5.6C33.2.5 38 5.3 38 11.3v14.4Z"/></g></svg>

<?xml version="1.0" encoding="UTF-8" standalone="no"?>
<svg width="49px" height="56px" viewBox="0 0 49 56" version="1.1" xmlns="http://www.w3.org/2000/svg" xmlns:xlink="http://www.w3.org/1999/xlink">
    <!-- Generator: Sketch 41.2 (35397) - http://www.bohemiancoding.com/sketch -->
    <title>Basket</title>
    <desc>Created with Sketch.</desc>
    <defs></defs>
    <g id="Page-1" stroke="none" stroke-width="1" fill="none" fill-rule="evenodd">
        <g id="Basket" fill="#000000">
            <path d="M48.2,55.5 L0.5,55.5 L0.5,13.5 L48.2,13.5 L48.2,55.5 Z M3.5,52.5 L45.2,52.5 L45.2,16.5 L3.5,16.5 L3.5,52.5 Z" id="Shape"></path>
            <path d="M38,25.7 L35,25.7 L35,11.3 C35,7 31.5,3.5 27.2,3.5 L21.6,3.5 C17.3,3.5 13.8,7 13.8,11.3 L13.8,25.7 L10.8,25.7 L10.8,11.3 C10.8,5.3 15.6,0.5 21.6,0.5 L27.2,0.5 C33.2,0.5 38,5.3 38,11.3 L38,25.7 Z" id="Shape"></path>
        </g>
    </g>
</svg>
